assets/img/braze_icons/credit-card-down.svg

<svg fill="none" height="24" viewBox="0 0 24 24" width="24" xmlns="http://www.w3.org/2000/svg"><g fill="#801ed7"><path d="m20 15c0-.5523-.4477-1-1-1s-1 .4477-1 1v3.5858l-1.2929-1.2929c-.3905-.3905-1.0237-.3905-1.4142 0s-.3905 1.0237 0 1.4142l3 3c.1875.1875.4419.2929.7071.2929s.5196-.1054.7071-.2929l3-3c.3905-.3905.3905-1.0237 0-1.4142s-1.0237-.3905-1.4142 0l-1.2929 1.2929z"/><path d="m5.16146 4h13.67704c.5272-.00001.982-.00003 1.3565.03057.3954.03231.7886.10362 1.167.29642.5645.28762 1.0234.74656 1.311 1.31104.1928.37838.2641.7716.2964 1.16695.0306.37456.0306.82932.0306 1.35646 0 .46312-.3754.83856-.8386.83856h-20.32281c-.46314 0-.83859-.37545-.83859-.83859-.000015-.5271-.000028-.98189.03057-1.35643.0323-.39535.10362-.78857.29641-1.16695.28762-.56448.74657-1.02343 1.31105-1.31105.37838-.19279.7716-.26411 1.16695-.29641.37455-.0306.82937-.03059 1.35648-.03057z"/><path d="m2.6 11c-.56005 0-.84008 0-1.05399.109-.18816.0959-.34114.2488-.43702.437-.10899.2139-.10899.4939-.10899 1.054v3.2385c-.000015.5271-.000028.982.03057 1.3565.0323.3954.10362.7886.29641 1.167.28762.5645.74657 1.0234 1.31105 1.311.37838.1928.7716.2641 1.16695.2964.37451.0306.82918.0306 1.35622.0306h6.8117c.5507 0 .826 0 .9399-.0638.1362-.0764.1623-.1062.2201-.2513.0483-.1213-.0034-.5101-.1066-1.2877-.1188-.8941.1653-1.8315.8524-2.5185.5858-.5858 1.3535-.8787 2.1213-.8787 0-1.6569 1.3431-3 3-3s3 1.3431 3 3c.3919 0 .5878 0 .6704-.0299.1708-.0619.2378-.1289.2997-.2997.0299-.0826.0299-.228.0299-.5189v-1.5515c0-.56 0-.8401-.109-1.054-.0959-.1882-.2488-.3411-.437-.437-.2139-.109-.4939-.109-1.054-.109z"/></g></svg>

<svg width="24" height="24" viewBox="0 0 24 24" fill="none" xmlns="http://www.w3.org/2000/svg">
<path d="M20 15C20 14.4477 19.5523 14 19 14C18.4477 14 18 14.4477 18 15V18.5858L16.7071 17.2929C16.3166 16.9024 15.6834 16.9024 15.2929 17.2929C14.9024 17.6834 14.9024 18.3166 15.2929 18.7071L18.2929 21.7071C18.4804 21.8946 18.7348 22 19 22C19.2652 22 19.5196 21.8946 19.7071 21.7071L22.7071 18.7071C23.0976 18.3166 23.0976 17.6834 22.7071 17.2929C22.3166 16.9024 21.6834 16.9024 21.2929 17.2929L20 18.5858V15Z" fill="#801ED7"/>
<path d="M5.16146 4L18.8385 4C19.3657 3.99999 19.8205 3.99997 20.195 4.03057C20.5904 4.06288 20.9836 4.13419 21.362 4.32699C21.9265 4.61461 22.3854 5.07355 22.673 5.63803C22.8658 6.01641 22.9371 6.40963 22.9694 6.80498C23 7.17954 23 7.6343 23 8.16144C23 8.62456 22.6246 9 22.1614 9H1.83859C1.37545 9 1 8.62455 1 8.16141C0.999985 7.63431 0.999972 7.17952 1.03057 6.80498C1.06287 6.40963 1.13419 6.01641 1.32698 5.63803C1.6146 5.07355 2.07355 4.6146 2.63803 4.32698C3.01641 4.13419 3.40963 4.06287 3.80498 4.03057C4.17953 3.99997 4.63435 3.99998 5.16146 4Z" fill="#801ED7"/>
<path d="M2.6 11C2.03995 11 1.75992 11 1.54601 11.109C1.35785 11.2049 1.20487 11.3578 1.10899 11.546C1 11.7599 1 12.0399 1 12.6V15.8385C0.999985 16.3656 0.999972 16.8205 1.03057 17.195C1.06287 17.5904 1.13419 17.9836 1.32698 18.362C1.6146 18.9265 2.07355 19.3854 2.63803 19.673C3.01641 19.8658 3.40963 19.9371 3.80498 19.9694C4.17949 20 4.63416 20 5.1612 20L11.9729 20C12.5236 20 12.7989 20 12.9128 19.9362C13.049 19.8598 13.0751 19.83 13.1329 19.6849C13.1812 19.5636 13.1295 19.1748 13.0263 18.3972C12.9075 17.5031 13.1916 16.5657 13.8787 15.8787C14.4645 15.2929 15.2322 15 16 15C16 13.3431 17.3431 12 19 12C20.6569 12 22 13.3431 22 15C22.3919 15 22.5878 15 22.6704 14.9701C22.8412 14.9082 22.9082 14.8412 22.9701 14.6704C23 14.5878 23 14.4424 23 14.1515V12.6C23 12.04 23 11.7599 22.891 11.546C22.7951 11.3578 22.6422 11.2049 22.454 11.109C22.2401 11 21.9601 11 21.4 11H2.6Z" fill="#801ED7"/>
</svg>
